icons/motorbike-fill.svg

<svg xmlns="http://www.w3.org/2000/svg" width="24" height="24" fill="none"><g clip-path="url(#a)"><g><path fill="#121212" d="M8.36501 10L11.2 8H17V10H11.856L9.00001 12H2.00001V10H8.36501ZM9.28101 15.06L12.206 13.995L12.89 15.875L9.96501 16.939C10.1027 18.0367 9.8312 19.1467 9.20235 20.0569C8.5735 20.9671 7.63138 21.6138 6.55595 21.8734C5.48051 22.133 4.34713 21.9874 3.37228 21.4643C2.39744 20.9412 1.64945 20.0773 1.27119 19.0376C0.892936 17.998 0.910918 16.8554 1.32171 15.8282C1.73249 14.801 2.50729 13.961 3.49812 13.4689C4.48894 12.9767 5.62635 12.8668 6.69308 13.1601C7.75982 13.4534 8.68112 14.1294 9.28101 15.059V15.06ZM5.50001 20C6.16305 20 6.79894 19.7366 7.26778 19.2678C7.73662 18.7989 8.00001 18.163 8.00001 17.5C8.00001 16.837 7.73662 16.2011 7.26778 15.7322C6.79894 15.2634 6.16305 15 5.50001 15C4.83697 15 4.20108 15.2634 3.73224 15.7322C3.2634 16.2011 3.00001 16.837 3.00001 17.5C3.00001 18.163 3.2634 18.7989 3.73224 19.2678C4.20108 19.7366 4.83697 20 5.50001 20ZM18.5 22C17.9091 22 17.3239 21.8836 16.7779 21.6575C16.232 21.4313 15.7359 21.0998 15.318 20.682C14.9002 20.2641 14.5687 19.768 14.3426 19.2221C14.1164 18.6761 14 18.0909 14 17.5C14 16.9091 14.1164 16.3239 14.3426 15.7779C14.5687 15.232 14.9002 14.7359 15.318 14.318C15.7359 13.9002 16.232 13.5687 16.7779 13.3425C17.3239 13.1164 17.9091 13 18.5 13C19.6935 13 20.8381 13.4741 21.682 14.318C22.5259 15.1619 23 16.3065 23 17.5C23 18.6935 22.5259 19.8381 21.682 20.682C20.8381 21.5259 19.6935 22 18.5 22ZM18.5 20C19.1631 20 19.7989 19.7366 20.2678 19.2678C20.7366 18.7989 21 18.163 21 17.5C21 16.837 20.7366 16.2011 20.2678 15.7322C19.7989 15.2634 19.1631 15 18.5 15C17.837 15 17.2011 15.2634 16.7322 15.7322C16.2634 16.2011 16 16.837 16 17.5C16 18.163 16.2634 18.7989 16.7322 19.2678C17.2011 19.7366 17.837 20 18.5 20ZM4.00001 11H10L12.6 9.267L12.88 8.221L14.812 8.739L12.89 15.87L11.068 14.982L11.186 14.542L9.00001 16L8.00001 14H4.00001V11ZM16.092 6H20V9H17.184L19.104 14.276L17.224 14.96L15.056 9H15V8.848L13.6 5H11V3H15L16.092 6Z"/></g></g><defs><clipPath id="a"><rect width="24" height="24" fill="white"/></clipPath></defs></svg>

<svg width="24" height="24" fill="none" xmlns="http://www.w3.org/2000/svg"><g clip-path="url(#a)"><path d="M8.365 10 11.2 8H17v2h-5.144L9 12H2v-2h6.365Zm.916 5.06 2.925-1.065.684 1.88-2.925 1.064a4.5 4.5 0 1 1-.684-1.88v.001ZM5.5 20a2.5 2.5 0 1 0 0-5 2.5 2.5 0 0 0 0 5Zm13 2a4.501 4.501 0 0 1-1.722-8.658 4.501 4.501 0 0 1 4.904 7.34A4.5 4.5 0 0 1 18.5 22Zm0-2a2.5 2.5 0 1 0 0-5 2.5 2.5 0 0 0 0 5ZM4 11h6l2.6-1.733.28-1.046 1.932.518-1.922 7.131-1.822-.888.118-.44L9 16l-1-2H4v-3Zm12.092-5H20v3h-2.816l1.92 5.276-1.88.684L15.056 9H15v-.152L13.6 5H11V3h4l1.092 3Z" /></g><defs><clipPath id="a"><path fill="#fff" d="M0 0h24v24H0z"/></clipPath></defs></svg>
